client/public/img/game/shared/projectiles/proj_confetti.svg

<?xml version="1.0" encoding="UTF-8" standalone="no"?>
<svg
   width="42"
   height="80"
   viewBox="0 0 42 80"
   fill="none"
   version="1.1"
   id="svg45"
   xmlns="http://www.w3.org/2000/svg"
   xmlns:svg="http://www.w3.org/2000/svg">
  <defs
     id="defs45" />
  <rect
     x="9.86133"
     y="39.4395"
     width="7.5"
     height="7.5"
     fill="#7D2DD2"
     id="rect1" />
  <rect
     x="9.86133"
     y="31.9395"
     width="7.5"
     height="7.5"
     fill="#42BD7D"
     id="rect2" />
  <rect
     x="17.3613"
     y="39.4395"
     width="7.5"
     height="7.5"
     fill="#42BD7D"
     id="rect3" />
  <rect
     x="17.3613"
     y="31.9395"
     width="7.5"
     height="7.5"
     fill="#D2B12D"
     id="rect4" />
  <rect
     x="24.8613"
     y="39.4395"
     width="7.5"
     height="7.5"
     fill="#D2B12D"
     id="rect5" />
  <rect
     x="17.3613"
     y="24.4395"
     width="7.5"
     height="7.5"
     fill="#D22D2D"
     id="rect6" />
  <rect
     x="24.8613"
     y="31.9395"
     width="7.5"
     height="7.5"
     fill="#D22D2D"
     id="rect7" />
  <rect
     x="17.3613"
     y="46.9395"
     width="7.5"
     height="7.5"
     fill="#7D2DD2"
     id="rect8" />
  <rect
     x="24.8613"
     y="54.4395"
     width="7.5"
     height="7.5"
     fill="#7D2DD2"
     id="rect9" />
  <rect
     x="24.8613"
     y="46.9395"
     width="7.5"
     height="7.5"
     fill="#42BD7D"
     id="rect10" />
  <rect
     x="9.86133"
     y="46.9395"
     width="7.5"
     height="7.5"
     fill="#42BD7D"
     id="rect11" />
  <rect
     x="17.3613"
     y="54.4395"
     width="7.5"
     height="7.5"
     fill="#42BD7D"
     id="rect12" />
  <rect
     x="24.8613"
     y="61.9395"
     width="7.5"
     height="7.5"
     fill="#42BD7D"
     id="rect13" />
  <rect
     x="9.86133"
     y="69.4395"
     width="7.5"
     height="7.5"
     fill="#D2B12D"
     id="rect14" />
  <rect
     x="9.86133"
     y="54.4395"
     width="7.5"
     height="7.5"
     fill="#D2B12D"
     id="rect15" />
  <rect
     x="17.3613"
     y="61.9395"
     width="7.5"
     height="7.5"
     fill="#D2B12D"
     id="rect16" />
  <rect
     x="24.8613"
     y="69.4395"
     width="7.5"
     height="7.5"
     fill="#D2B12D"
     id="rect17" />
  <rect
     x="9.86133"
     y="61.9395"
     width="7.5"
     height="7.5"
     fill="#D22D2D"
     id="rect18" />
  <rect
     x="17.3613"
     y="69.4395"
     width="7.5"
     height="7.5"
     fill="#D22D2D"
     id="rect19" />
  <path
     d="M9.37252 76.9395C6.24024 75.5852 3.86211 72.8168 3.04297 69.4395H9.86138V76.9395H9.37252Z"
     fill="#42BD7D"
     id="path19" />
  <path
     d="M3.04292 69.4395C2.84061 68.6054 2.7334 67.7341 2.7334 66.8379V61.9395H9.86133V69.4395H3.04292Z"
     fill="#D2B12D"
     id="path20" />
  <path
     d="M2.7334 61.9395V54.4395H9.86133V61.9395H2.7334Z"
     fill="#D22D2D"
     id="path21" />
  <path
     d="M2.7334 54.4395V46.9395H9.86133V54.4395H2.7334Z"
     fill="#D2B12D"
     id="path22" />
  <path
     d="M2.7334 46.9395V39.4395H9.86133V46.9395H2.7334Z"
     fill="#42BD7D"
     id="path23" />
  <path
     d="M2.7334 39.4395V36.3906C2.7334 34.8065 3.06837 33.3004 3.67137 31.9395H9.86133V39.4395H2.7334Z"
     fill="#7D2DD2"
     id="path24" />
  <path
     d="M3.6709 31.9397C4.86134 29.2529 7.09639 27.1318 9.86085 26.0918V31.9397H3.6709Z"
     fill="#42BD7D"
     id="path25" />
  <path
     d="M9.86133 26.0916C11.0657 25.6385 12.3706 25.3906 13.7334 25.3906H15.7012V24.4395H17.3613V31.9395H9.86133V26.0916Z"
     fill="#D2B12D"
     id="path26" />
  <path
     d="M17.3613 18.4648V24.4395H15.7012V18.9648C15.7012 18.6895 15.9248 18.4648 16.2012 18.4648H17.3613Z"
     fill="#D22D2D"
     id="path27" />
  <path
     d="M24.8613 18.4648V24.4395H17.3613V18.4648H24.8613Z"
     fill="#D2B12D"
     id="path28" />
  <path
     d="M26.5137 24.4395H24.8613V18.4648H26.0137C26.29 18.4648 26.5137 18.6895 26.5137 18.9648V24.4395Z"
     fill="#42BD7D"
     id="path29" />
  <path
     d="M26.5137 24.4395V25.3906H28.4883C29.8514 25.3906 31.1567 25.6386 32.3613 26.0919V31.9395H24.8613V24.4395H26.5137Z"
     fill="#D2B12D"
     id="path30" />
  <path
     d="M32.3613 26.0918C35.1253 27.1319 37.36 29.2529 38.5503 31.9393H32.3613V26.0918Z"
     fill="#42BD7D"
     id="path31" />
  <path
     d="M38.5503 31.9395C39.1533 33.3004 39.4883 34.8065 39.4883 36.3906V39.4395H32.3613V31.9395H38.5503Z"
     fill="#D2B12D"
     id="path32" />
  <path
     d="M39.4883 39.4395V46.9395H32.3613V39.4395H39.4883Z"
     fill="#D22D2D"
     id="path33" />
  <path
     d="M39.4883 46.9395V54.4395H32.3613V46.9395H39.4883Z"
     fill="#D2B12D"
     id="path34" />
  <path
     d="M39.4883 54.4395V61.9395H32.3613V54.4395H39.4883Z"
     fill="#42BD7D"
     id="path35" />
  <path
     d="M39.4883 61.9395V66.8379C39.4883 67.7341 39.3811 68.6054 39.1788 69.4395H32.3613V61.9395H39.4883Z"
     fill="#7D2DD2"
     id="path36" />
  <path
     d="M39.1788 69.4395C38.3596 72.8168 35.9815 75.5852 32.8492 76.9395H32.3613V69.4395H39.1788Z"
     fill="#42BD7D"
     id="path37" />
  <path
     d="M32.8492 76.9395C32.6885 77.0089 32.5259 77.0747 32.3613 77.1366V76.9395H32.8492Z"
     fill="#D2B12D"
     id="path38" />
  <path
     d="M32.3613 77.1366C31.1567 77.5899 29.8514 77.8379 28.4883 77.8379H24.8613V76.9395H32.3613V77.1366Z"
     fill="#D22D2D"
     id="path39" />
  <path
     d="M24.8613 77.8379H17.3613V76.9395H24.8613V77.8379Z"
     fill="#D2B12D"
     id="path40" />
  <path
     d="M17.3613 77.8379H13.7334C12.3706 77.8379 11.0657 77.59 9.86133 77.137V76.9395H17.3613V77.8379Z"
     fill="#42BD7D"
     id="path41" />
  <path
     d="M9.86093 77.137C9.69606 77.0749 9.53307 77.0091 9.37207 76.9395H9.86093V77.137Z"
     fill="#7D2DD2"
     id="path42" />
  <path
     d="M15.7012 18.9648C15.7012 18.6895 15.9248 18.4648 16.2012 18.4648H26.0137C26.29 18.4648 26.5137 18.6895 26.5137 18.9648V25.3906H28.4883C34.5635 25.3906 39.4883 30.3164 39.4883 36.3906V66.8379C39.4883 72.9121 34.5635 77.8379 28.4883 77.8379H13.7334C7.6582 77.8379 2.7334 72.9121 2.7334 66.8379V36.3906C2.7334 30.3164 7.6582 25.3906 13.7334 25.3906H15.7012V18.9648Z"
     stroke="#191A14"
     stroke-width="4"
     id="path43" />
  <path
     d="M27.541 5.23384C27.541 5.62621 27.6183 6.01477 27.7686 6.37726C27.9189 6.73976 28.1391 7.06912 28.4168 7.34656C28.6944 7.624 29.024 7.84411 29.3868 7.99425C29.7495 8.1444 30.1384 8.2216 30.531 8.22159C30.9237 8.2216 31.3125 8.1444 31.6753 7.99425C32.038 7.84411 32.3676 7.624 32.6453 7.34656C32.9229 7.06912 33.1432 6.73976 33.2934 6.37726C33.4437 6.01477 33.521 5.62621 33.521 5.23384C33.521 4.84148 33.4437 4.45302 33.2934 4.09052C33.1432 3.72803 32.9229 3.39857 32.6453 3.12112C32.3676 2.84368 32.038 2.62368 31.6753 2.47353C31.3125 2.32339 30.9237 2.24609 30.531 2.24609C30.1384 2.24609 29.7495 2.32339 29.3868 2.47353C29.024 2.62368 28.6944 2.84368 28.4168 3.12112C28.1391 3.39857 27.9189 3.72803 27.7686 4.09052C27.6183 4.45302 27.541 4.84148 27.541 5.23384Z"
     fill="#453C47"
     stroke="#181519"
     stroke-width="4"
     stroke-miterlimit="3.99393"
     id="path44" />
  <path
     d="M25.2501 4.10547L26.5145 5.23272H30.4825L25.2501 12.3651L26.5145 18.4638C26.5145 18.4638 15.414 18.4638 15.2625 18.4638H7.20117L12.3102 4.10547L25.2501 4.10547Z"
     fill="#48354E"
     stroke="#19131B"
     stroke-width="4"
     stroke-miterlimit="3.99393"
     stroke-linecap="square"
     id="path45" />
</svg>

<svg xmlns="http://www.w3.org/2000/svg" width="42" height="80" fill="none"><path fill="#7D2DD2" d="M9.861 39.44h7.5v7.5h-7.5z"/><path fill="#42BD7D" d="M9.861 31.939h7.5v7.5h-7.5zM17.361 39.44h7.5v7.5h-7.5z"/><path fill="#D2B12D" d="M17.361 31.939h7.5v7.5h-7.5zM24.861 39.44h7.5v7.5h-7.5z"/><path fill="#D22D2D" d="M17.361 24.439h7.5v7.5h-7.5zM24.861 31.939h7.5v7.5h-7.5z"/><path fill="#7D2DD2" d="M17.361 46.94h7.5v7.5h-7.5zM24.861 54.44h7.5v7.5h-7.5z"/><path fill="#42BD7D" d="M24.861 46.94h7.5v7.5h-7.5zM9.861 46.94h7.5v7.5h-7.5zM17.361 54.44h7.5v7.5h-7.5zM24.861 61.94h7.5v7.5h-7.5z"/><path fill="#D2B12D" d="M9.861 69.439h7.5v7.5h-7.5zM9.861 54.44h7.5v7.5h-7.5zM17.361 61.94h7.5v7.5h-7.5zM24.861 69.439h7.5v7.5h-7.5z"/><path fill="#D22D2D" d="M9.861 61.94h7.5v7.5h-7.5zM17.361 69.439h7.5v7.5h-7.5z"/><path fill="#42BD7D" d="M9.373 76.94a11.03 11.03 0 0 1-6.33-7.5h6.818v7.5z"/><path fill="#D2B12D" d="M3.043 69.44a11 11 0 0 1-.31-2.602V61.94h7.128v7.5z"/><path fill="#D22D2D" d="M2.733 61.94v-7.5h7.128v7.5z"/><path fill="#D2B12D" d="M2.733 54.44v-7.5h7.128v7.5z"/><path fill="#42BD7D" d="M2.733 46.94v-7.5h7.128v7.5z"/><path fill="#7D2DD2" d="M2.733 39.44v-3.05c0-1.584.335-3.09.938-4.45h6.19v7.5z"/><path fill="#42BD7D" d="M3.67 31.94a11.04 11.04 0 0 1 6.19-5.848v5.848z"/><path fill="#D2B12D" d="M9.861 26.092a11 11 0 0 1 3.872-.701h1.968v-.951h1.66v7.5h-7.5z"/><path fill="#D22D2D" d="M17.361 18.465v5.974h-1.66v-5.474a.5.5 0 0 1 .5-.5z"/><path fill="#D2B12D" d="M24.861 18.465v5.974h-7.5v-5.974z"/><path fill="#42BD7D" d="M26.514 24.44H24.86v-5.975h1.153a.5.5 0 0 1 .5.5z"/><path fill="#D2B12D" d="M26.514 24.44v.95h1.974c1.363 0 2.669.249 3.873.702v5.848h-7.5v-7.5z"/><path fill="#42BD7D" d="M32.361 26.092a11.04 11.04 0 0 1 6.19 5.847h-6.19z"/><path fill="#D2B12D" d="M38.55 31.94a11 11 0 0 1 .938 4.45v3.05h-7.127v-7.5z"/><path fill="#D22D2D" d="M39.488 39.44v7.5h-7.127v-7.5z"/><path fill="#D2B12D" d="M39.488 46.94v7.5h-7.127v-7.5z"/><path fill="#42BD7D" d="M39.488 54.44v7.5h-7.127v-7.5z"/><path fill="#7D2DD2" d="M39.488 61.94v4.898c0 .896-.107 1.767-.31 2.602h-6.817v-7.5z"/><path fill="#42BD7D" d="M39.179 69.44a11.03 11.03 0 0 1-6.33 7.5h-.488v-7.5z"/><path fill="#D2B12D" d="M32.85 76.94q-.242.104-.489.197v-.198z"/><path fill="#D22D2D" d="M32.361 77.137c-1.204.453-2.51.7-3.873.7h-3.627v-.898h7.5z"/><path fill="#D2B12D" d="M24.861 77.838h-7.5v-.898h7.5z"/><path fill="#42BD7D" d="M17.361 77.838h-3.628c-1.362 0-2.667-.248-3.872-.701v-.198h7.5z"/><path fill="#7D2DD2" d="M9.86 77.137a11 11 0 0 1-.488-.198h.489z"/><path stroke="#191A14" stroke-width="4" d="M15.701 18.965a.5.5 0 0 1 .5-.5h9.813a.5.5 0 0 1 .5.5v6.426h1.974c6.075 0 11 4.925 11 11v30.447c0 6.074-4.925 11-11 11H13.733c-6.075 0-11-4.926-11-11V36.39c0-6.075 4.925-11 11-11h1.968z"/><path fill="#453C47" stroke="#181519" stroke-miterlimit="3.994" stroke-width="4" d="M27.541 5.234a2.985 2.985 0 0 0 2.99 2.988 2.99 2.99 0 0 0 2.99-2.988 2.985 2.985 0 0 0-1.846-2.76 2.992 2.992 0 0 0-4.134 2.76Z"/><path fill="#48354E" stroke="#19131B" stroke-linecap="square" stroke-miterlimit="3.994" stroke-width="4" d="m25.25 4.105 1.265 1.128h3.968l-5.233 7.132 1.265 6.099H7.201L12.31 4.105z"/></svg>
